X: 452
T: The Stuart's Rant
R: reel
B: Robert Bremner "A Collection of Scots Reels or Country Dances" 1757 p.45 #2
S: http://imslp.org/wiki/A_Collection_of_Scots_Reels_or_Country_Dances_(Bremner,_Robert)
Z: 2013 John Chambers <jc:trillian.mit.edu>
M: C
L: 1/8
K: Amix
% - - - - - - - - - - - - - - - - - - - - - - - - -
V: 1
e |\
(c/d/e) (f/g/a) Te2dc | dBgB aBgB |\
(c/d/e) (f/g/a) Te2dc | dBgB aAA :|
|: e |\
TcA A/A/A TcAcA | BE E/E/E BEBe |\
TcA A/A/A TcAcA | BE E/E/E aAA :|
% - - - - - - - - - - - - - - - - - - - - - - - - -
V: 2 clef=bass middle=d
z |\
a2a2 a2a2 | g2g2 g2g2 |\
a2a2 a2a2 | e2e2 A2A :|
|: z |\
a2a2 a2a2 | e2e2 e2e2 |\
a2a2 a2a2 | e2e2 A2A :|
% - - - - - - - - - - - - - - - - - - - - - - - - -

%%sep 1 1 500
%%sep 1 1 500
